X:6852
T:Hart's Scotch Set,#5. JNu.55
T:Over the Hills and Far Away,aka. JNu.55
M:2/4
L:1/4
Q:40
S:James Nuttall MS,c1830,Rossendale,East Lancs.
R:Quadrille
O:England
A:East Lancashire
Z:vmp.Manchester Morris Men
K:C
G|c/d/e/d/ c/d/e/d/|cA AG|c/d/e/d/ c/d/e/d/|
g/f/e/f/ dG|!c/d/e/d/ c/d/e/d/|
cA fA|AG/^F/ Ge|fd d::!
e/f/|g3/2a/2 g/f/e/d/|cA AG|g3/2a/2 g/f/e/d/|
g/f/e/f/ de/f/|!
g3/2a/2 g/f/e/d/|cA fA|AG/^F/ Ge|fd d:|]
